public/library/carbon-perpetuals-icon-light.svg

<svg xmlns="http://www.w3.org/2000/svg" width="2.479rem" height="2.2406344819rem" viewBox="0 0 52 47" fill="none"><path fill-rule="evenodd" clip-rule="evenodd" d="M45.052 4.33576e-06C45.0991 0.000139407 45.2067 0.00226403 45.3185 0.0469912C45.6011 0.160027 47.6669 1.15389 48.638 1.62344L50.1125 2.33637L48.497 2.60562C48.3731 2.62627 48.1767 2.66214 47.9949 2.70167C47.9038 2.72149 47.8212 2.74119 47.7553 2.75934C47.72 2.76907 47.6965 2.77649 47.6825 2.78116C47.6667 2.79308 47.6456 2.8095 47.6187 2.83092C47.5511 2.88471 47.4588 2.96074 47.3458 3.05539C47.1205 3.24414 46.8226 3.49899 46.4968 3.78031C46.2179 4.02109 45.9197 4.28027 45.6307 4.53238H51.0947L49.0999 5.90527L44.8302 7.29604L43.7261 9.94021V14.5527L38.9952 26.8595L30.0931 35.1049V30.4795L29.6328 30.9913L29.0464 35.2372L33.6015 43.8595L35.3585 44.6078L36.3021 45.8762H32.6634L32.8978 46.3748H24.0451L24.8173 44.2622L25.9188 43.5688L20.9503 37.0166V35.8033L17.4014 39.2755L18.7622 34.0674L16.0312 36.7013L10.5385 37.8756V37.3325L0 46.0871L1.29453 35.7308L4.78843 32.7447L5.47131 29.4649L12.881 21.6583L18.656 16.7692L22.5508 14.2867L22.8926 14.2799L28.0387 8.50067L29.2349 8.50696L33.8466 2.69966L38.0522 0.266647L41.0752 1.03066C41.6941 0.836859 42.567 0.573623 43.3367 0.363299C43.7508 0.250151 44.1424 0.150253 44.451 0.0849047C44.6041 0.0524752 44.7471 0.0263334 44.8666 0.0121905C44.9259 0.00517684 44.9899 -0.000174115 45.052 4.33576e-06ZM25.0847 36.048L25.4259 35.6686L30.1852 42.9315L31.7144 43.9571L31.8138 44.1743L29.8209 43.4028L25.0847 36.048ZM30.5652 8.50609L34.2888 8.49854L32.7612 9.5667L29.4863 9.54947L28.4971 9.55147L24.3118 14.2518L27.2758 14.1931L26.1784 15.2905L23.1376 15.3164L22.8638 15.3219L19.275 17.6093L13.5971 22.4162L6.43029 29.967L6.0839 31.6306L9.62746 28.5811V29.9786L5.60142 33.4195L4.43979 34.4192L4.44153 34.4108L2.27764 36.2602L1.35966 43.604L10.5385 35.979V33.6581L12.7185 31.9674V28.2278L24.7246 18.0992V19.4845L13.7596 28.712V31.1575L25.0174 22.3941V23.7467L13.5588 32.6333L13.5581 32.6339L11.5797 34.1682V36.5883L15.5226 35.7453L19.2674 32.1336L19.2678 32.1322L19.3746 32.0303L22.7073 28.8159V30.2867L20.2005 32.6812L19.3584 35.9042L36.0182 19.6046L38.3356 15.361L36.3865 12.4291H33.8535L25.7332 18.8647V17.5128L33.3488 11.5005L33.3496 11.4999L33.4915 11.3879H36.9446L39.5507 15.3082L36.8575 20.2401L21.9915 34.7846V36.6664L27.4347 43.8448L25.673 44.9538L25.5342 45.3336H31.258L31.1098 45.0182L29.129 44.2514L23.7787 35.943L30.0931 28.9226V28.9218L30.2276 28.7731L35.1364 23.3154V24.8959L31.1343 29.3227V32.7214L38.1102 26.2601L42.6849 14.3595V9.73155L44.0535 6.45402L46.7565 5.57356H42.8676L43.9027 4.66224C44.4023 4.22234 45.1618 3.5574 45.8164 2.99222C46.1434 2.70984 46.4459 2.45102 46.6772 2.25726C46.7925 2.16065 46.8925 2.07822 46.97 2.01648L47.0022 1.99106C46.1673 1.5902 45.2882 1.17115 45.0035 1.04453L44.9889 1.04616C44.9151 1.0549 44.8074 1.0737 44.6667 1.1035C44.3876 1.1626 44.0186 1.2563 43.6111 1.36765C42.7983 1.58977 41.8617 1.87396 41.2474 2.06795L41.1064 2.11247L38.2073 1.37977L34.539 3.50192L30.5652 8.50609ZM45.049 1.04118C45.0551 1.0412 45.0537 1.04162 45.0464 1.04122L45.049 1.04118ZM31.8675 42.8061L27.9691 35.427L28.3662 32.5521L26.199 34.9487L30.9404 42.1843L31.8675 42.8061ZM37.3809 3.65194L38.5511 4.2404L40.0253 3.75264L40.3213 3.16401L39.1702 2.59681L37.6534 3.11021L37.3809 3.65194Z" fill="#FFF"></path></svg>

<svg xmlns="http://www.w3.org/2000/svg" width="2.479rem" height="2.2406344819rem" fill="none" viewBox="0 0 52 47"><path fill="#fff" fill-rule="evenodd" d="M45.052 0c.047 0 .155.002.267.047.282.113 2.348 1.107 3.319 1.576l1.474.713-1.615.27c-.124.02-.32.056-.502.096a5 5 0 0 0-.312.08l-.064.049q-.103.082-.273.224c-.225.19-.523.444-.85.725l-.865.752h5.464L49.1 5.905l-4.27 1.391-1.104 2.644v4.613l-4.73 12.307-8.903 8.245V30.48l-.46.511-.587 4.246 4.556 8.622 1.757.749.943 1.268h-3.639l.235.499h-8.853l.772-2.113 1.102-.693-4.969-6.552v-1.214l-3.549 3.473 1.361-5.209-2.73 2.634-5.493 1.175v-.543L0 46.087l1.295-10.356 3.493-2.986.683-3.28 7.41-7.807 5.775-4.889 3.895-2.482.342-.007 5.146-5.78 1.196.007L33.847 2.7 38.052.267l3.023.764a69 69 0 0 1 2.262-.668C43.75.25 44.142.15 44.45.085c.153-.033.296-.059.416-.073q.09-.011.185-.012M25.085 36.048l.34-.38 4.76 7.264 1.53 1.025.099.217-1.993-.771zm5.48-27.542L34.29 8.5 32.76 9.567l-3.275-.018-.989.002-4.185 4.7 2.964-.058-1.098 1.098-3.04.025-.274.006-3.589 2.287-5.678 4.807-7.167 7.551-.346 1.664 3.543-3.05v1.398l-4.026 3.44-1.161 1 .002-.008-2.164 1.85-.918 7.343 9.179-7.625v-2.32l2.18-1.692v-3.74L24.725 18.1v1.386L13.76 28.712v2.445l11.257-8.763v1.353L13.56 32.633l-1.98 1.535v2.42l3.944-.843 3.744-3.611v-.002l.108-.102 3.332-3.214v1.47l-2.506 2.395-.843 3.223 16.66-16.3 2.318-4.243-1.95-2.932h-2.533l-8.12 6.436v-1.352L33.35 11.5l.143-.112h3.453l2.606 3.92-2.693 4.932-14.866 14.545v1.881l5.443 7.179-1.762 1.109-.139.38h5.724l-.148-.316-1.981-.767-5.35-8.308 6.314-7.02v-.001l.135-.149 4.908-5.458v1.58l-4.002 4.428v3.398l6.976-6.46 4.575-11.901V9.732l1.368-3.278 2.704-.88h-3.89l1.036-.912c.5-.44 1.259-1.105 1.913-1.67.327-.282.63-.541.861-.735.115-.096.215-.179.293-.24l.032-.026c-.835-.4-1.714-.82-1.998-.946l-.015.001a4 4 0 0 0-.322.057c-.28.06-.648.153-1.056.265-.813.222-1.75.506-2.364.7l-.14.044-2.9-.732-3.668 2.122zM45.05 1.041h-.003zM31.868 42.806l-3.899-7.379.397-2.875L26.2 34.95l4.741 7.235zM37.38 3.652l1.17.588 1.474-.487.296-.589-1.15-.567-1.518.513z" clip-rule="evenodd"/></svg>
